X: 5491
T:Crooked Road
M:4/4
L:1/8
R:reel
Z:From Josephine Marsh at Kilfenora 1996
K:G
~G2 AG FGAF|~G2 FG AdcA|~G2 AG FGAd|fdcA ~d2 cA|\
~G2 AG FGAF|~G2 FG AdcA|~G2 AG FGAd|fdcA ~d2 Bc||\
d~g3 fgaf|d~g3 agfe|d~g3 fgag|fdcA ~d2 Bc|\
d~g3 fgaf|d~g3 ~a2 ga|bgaf g ~a3|fdcA ~d2 cA||\
